%
O0001
N100 ( PROGRAM NAME  : 2)
N101 ( PART NAME     : 2)
N102 ( PROGRAM DATE  : 2023-05-24 - 6:41:07 AM)
N103 ( PROGRAMMED BY : POWERMILL)
N104 ( POWERMILL CB  : 2022005.0)
N105 ( POST VER      : 2022.0.0.5118)
N106 ( OPTION FILE   : FANUC)
N107 ( OUTPUT WORKPLANE : 1)
N108 (  )
N109 ( TOOL LIST )
N110 (----------------------------------)
N111 ( NO. | ID   | DIA.| TIP RAD|LENGTH)
N112 (----------------------------------)
N113 (    1|25R1.2|25.0 |  1.2   |125.0 )
N114 (----------------------------------)
N115 (  )
N116 ( NUMBER OF TOOLPATHS: 1.0 )
N117 ( ESTIMATED PROGRAM DURATION: 0 HOURS 2 MIN 25 SEC)
N118 (  )
N119 G00 G21 G80 G40 G17 
N120 G90 
N121 G54
N122 G53 Z0.0
N123 (---------------)
N124 ( START TOOLPATH : 2 )
N125 (---------------)
N126 ( TOOL NO.    :1 )
N127 ( TOOL TYPE   : TIPRADIUSED)
N128 ( TOOL ID     : 25R1.2)
N129 ( TOOL DIA    : 25.0 LENGTH 125.0)
N130 T1 
N131 M6
N132 S4000 M03 
N133 G00 G90 X0.0 Y0.0 
N134 G43 Z10.0 H1 
N135 M08 
N136 G05 P10000 R4
N137 X242.5 Y-57.8571 
N138 Z5.0 
N139 G01 Z-8.15 F400.0 
N140 X-242.5 F4000.0 
N141 Y-48.2143 
N142 X242.5 
N143 Y-38.5714 
N144 X-12.5927 
N145 G02 X-31.7795 I-9.5934 J37.4141 
N146 G01 X-242.5 
N147 Y-28.9286 
N148 X-49.4413 
N149 G02 X-56.9427 Y-19.2857 I25.9611 J27.935 
N150 G01 X-242.5 
N151 Y-9.6429 
N152 X-60.753 
N153 G02 X-61.9309 Y0.0 I36.1513 J9.3093 
N154 G01 X-242.5 
N155 Y9.6429 
N156 X-60.753 
N157 G02 X-56.9427 Y19.2857 I35.405 J-8.4159 
N158 G01 X-242.5 
N159 Y28.9286 
N160 X-49.4413 
N161 G02 X-31.7796 Y38.5714 I26.7357 J-27.9729 
N162 G01 X-242.5 
N163 Y48.2143 
N164 X242.5 
N165 Y57.8571 
N166 X-242.5 
N167 Y66.25 
N168 G02 X-241.25 Y67.5 I1.25 J0.0 
N169 G01 X241.25 
N170 G02 X242.5 Y66.25 I0.0 J-1.25 
N171 G01 Y38.5714 
N172 X-12.5927 
N173 G02 X5.0622 Y28.9286 I-9.0463 J-37.546 
N174 G01 X242.5 
N175 Y19.2857 
N176 X12.5673 
N177 G02 X16.379 Y9.6429 I-31.5018 J-18.0271 
N178 G01 X242.5 
N179 Y0.0 
N180 X17.5573 
N181 G02 X16.379 Y-9.6429 I-37.4346 J-0.3192 
N182 G01 X242.5 
N183 Y-19.2857 
N184 X12.5673 
N185 G02 X5.0622 Y-28.9286 I-33.4136 J18.2641 
N186 G01 X242.5 
N187 G00 Z-3.15 
N188 G01 Y-57.8571 F3000.0 
N189 Z-8.15 F400.0 
N190 Y-66.25 F4000.0 
N191 G02 X241.25 Y-67.5 I-1.25 J0.0 
N192 G01 X-241.25 
N193 G02 X-242.5 Y-66.25 I0.0 J1.25 
N194 G01 Y66.25 
N195 G02 X-241.25 Y67.5 I1.25 J0.0 
N196 G01 X241.25 
N197 G02 X242.5 Y66.25 I0.0 J-1.25 
N198 G01 Y62.1402 
N199 G00 Z-2.7391 
N200 G01 X-12.5927 Y-38.5714 F3000.0 
N201 G00 Z-3.15 
N202 G01 Z-8.15 F400.0 
N203 G02 X-28.922 Y39.1934 I-9.6131 J38.5782 F4000.0 
N204 G02 X-12.5927 Y-38.5714 I6.7416 J-39.1812 
N205 G00 Z5.0688 
N206 G01 X-21.1993 Y-4.0394 F3000.0 
N207 G00 Z-3.15 
N208 G01 Z-8.15 F400.0 
N209 G03 X-19.6145 Y-3.2556 I-1.0018 J4.0195 F4000.0 
N210 G03 X-24.9482 Y3.0807 I-2.5418 J3.2734 
N211 G03 X-21.1993 Y-4.0394 I2.7471 J-3.1006 
N212 G00 Z5.0 
N213 G01 X-47.539 Y-28.7533 F3000.0 
N214 Z0.0 F400.0 
N215 X-46.2542 Y-27.303 F4000.0 
N216 X1.881 
N217 G03 X9.315 Y-18.202 I-22.7206 J26.1456 
N218 G01 X-53.6922 
N219 G02 X-57.4144 Y-9.101 I28.9083 J17.1348 
N220 G01 X13.0425 
N221 G03 X14.2003 Y0.0 I-32.2858 J8.7316 
N222 G01 X-58.574 
N223 G02 X-57.4144 Y9.101 I33.3082 J0.3803 
N224 G01 X13.0425 
N225 G03 X9.315 Y18.202 I-32.5976 J-8.0371 
N226 G01 X-53.6922 
N227 G02 X-46.2542 Y27.303 I30.2723 J-17.1508 
N228 G01 X1.881 
N229 G00 Z10.0 
N230 G05 P0
N231 (---------------)
N232 ( END TOOLPATH : 2 )
N233 (---------------)
N234 M09 
N235 M05 
N236 G53 Z0.0
N237 M30
%
